X: 19
T:Rights of Man, The
M:4/4
L:1/8
Q:120
R:Hornpipe
K:Em
G>A|"Em"(3Bcd A>B G>A F>G|"C"E>FG>A "Em"B2 e>f|
g>fe>d "D"B>de>f|"Em"g>ed>B "D"A2 G>A|!
"Em"(3BcB (3ABA G>AG>F|"C"E>FG>A "Em"B2 e>f|
"C"g>fe>d "Bm"B>g f>g|"Em"e2E2E2::g>a|!
b>ag>f e>fg>a|b>ge>d e>gf>e|"D"d2{e}d>c d>ef>g|a>fd>fa2g>f|!
"Em"e>de>f g>fg>a|b>ge>f g>ab>a|"C"g>fe>d "Bm"B>g f>g|"Em"e2E2E2:|
